X: 1
T: COUNTRY GARDENS
S: MDT
O: Headington
P: A.(A2B2)4
Q: 1/2=92
B: Morris Ring
Z: 2005 John Chambers <jc@trillian.mit.edu>
M: 4/4
L: 1/8
K: Bb
P: A
|: F2B2   B2d2 | c>dc>B A2A>B | c2F2  G2B2 | A3G F4   :|
P: B
|: f>gf>d e2c2 | f>ef>d e2c2  | f2f>e d2g2 | e3d c2A>B |
   c2f>e  d2d2 | c>dc>B A2A>B | c2F2  G2B2 | A3G F4   :|
